svgs/duotone/desktop.svg

<svg xmlns="http://www.w3.org/2000/svg" viewBox="0 0 576 512"><!--! Font Awesome Pro 6.0.0-alpha3 by @fontawesome - https://fontawesome.com License - https://fontawesome.com/license (Commercial License) --><defs><style>.fa-secondary{opacity:.4}</style></defs><path class="fa-primary" d="M424 464H352L336 416h-96L224 464H152C138.8 464 128 474.8 128 488S138.8 512 152 512h272c13.25 0 24-10.75 24-24S437.3 464 424 464zM64 64v224h448V64H64z"/><path class="fa-secondary" d="M528 0h-480C21.5 0 0 21.5 0 48v320C0 394.5 21.5 416 48 416h480c26.5 0 48-21.5 48-48v-320C576 21.5 554.5 0 528 0zM512 288H64V64h448V288z"/></svg>

<svg xmlns="http://www.w3.org/2000/svg" viewBox="0 0 576 512"><defs><style>.fa-secondary{opacity:.4}</style></defs><path d="M528 0H48A48 48 0 0 0 0 48v320a48 48 0 0 0 48 48h480a48 48 0 0 0 48-48V48a48 48 0 0 0-48-48zm-16 352H64V64h448z" class="fa-secondary"/><path d="M424 464h-72l-16-48h-96l-16 48h-72a24 24 0 0 0 0 48h272a24 24 0 0 0 0-48zM64 64v288h448V64z" class="fa-primary"/></svg>
